Catalina-light/actions/22/kdenlive-insert-unicode.svg

<svg xmlns="http://www.w3.org/2000/svg" viewBox="0 0 22 22">
  <defs id="defs3051">
    <style type="text/css" id="current-color-scheme">
      .ColorScheme-Text {
        color:#4d4d4d;
      }
      </style>
  </defs>
 <path 
     style="fill:currentColor;fill-opacity:1;stroke:none" 
     d="M 3 3 L 3 14.5 C 3 16.98528 5.01472 19 7.5 19 C 9.98528 19 12 16.98528 12 14.5 L 12 7.75 L 16.90625 19 L 18 19 L 19 19 L 19 7 L 17 7 L 17 14.25 L 12.09375 3 L 11 3 L 10 3 L 10 14.5 C 10 15.88071 8.88071 17 7.5 17 C 6.11929 17 5 15.88071 5 14.5 L 5 3 L 3 3 z M 17 3 L 17 5 L 19 5 L 19 3 L 17 3 z "
     class="ColorScheme-Text"
     />
</svg>

<svg viewBox="0 0 22 22" xmlns="http://www.w3.org/2000/svg">
<defs>
<style id="current-color-scheme" type="text/css">.ColorScheme-Text {
        color:#4d4d4d;
      }</style>
</defs>
<path class="ColorScheme-Text" d="m3 3v11.5c0 2.4853 2.0147 4.5 4.5 4.5s4.5-2.0147 4.5-4.5v-6.75l4.9062 11.25h2.0938v-12h-2v7.25l-4.9062-11.25h-2.0938v11.5c0 1.3807-1.1193 2.5-2.5 2.5s-2.5-1.1193-2.5-2.5v-11.5h-2zm14 0v2h2v-2h-2z" fill="currentColor"/>
</svg>
